X: 104
T:Michies Jig
M:6/8
L:1/8
Z:Rachel Marsh
K:Em
~E3 eEd | ~e3 edB | ~A3 AGA | BdA BAd | ~E3 eEd | ~e3 edB | ~A3 AGA |
BdF E3 :||
~E3 FEG | ~E3 FEG | ~D3 EDF | DGD FED | ~E3 FEG | EFG AGA | ~B3 AFD | ~E
3 E3 :||
<end>
<start>
